svg/ubuntu.svg

<?xml version="1.0" encoding="UTF-8"?>
<svg xmlns="http://www.w3.org/2000/svg" xmlns:xlink="http://www.w3.org/1999/xlink" width="32" height="32" viewBox="0 0 32 32">
<path fill-rule="nonzero" fill="rgb(86.666667%, 28.235294%, 7.843137%)" fill-opacity="1" d="M 32 16 C 32 24.835938 24.835938 32 16 32 C 7.164062 32 0 24.835938 0 16 C 0 7.164062 7.164062 0 16 0 C 24.835938 0 32 7.164062 32 16 M 32 16 "/>
<path fill-rule="nonzero" fill="rgb(100%, 100%, 100%)" fill-opacity="1" d="M 5.121094 13.863281 C 3.941406 13.863281 2.984375 14.820312 2.984375 16 C 2.984375 17.179688 3.941406 18.136719 5.121094 18.136719 C 6.300781 18.136719 7.257812 17.179688 7.257812 16 C 7.257812 14.820312 6.300781 13.863281 5.121094 13.863281 M 20.371094 23.5625 C 19.355469 24.15625 19.007812 25.457031 19.589844 26.480469 C 20.199219 27.453125 21.472656 27.765625 22.464844 27.191406 C 23.460938 26.621094 23.824219 25.363281 23.289062 24.347656 C 23.007812 23.855469 22.539062 23.496094 21.992188 23.351562 C 21.445312 23.203125 20.863281 23.28125 20.371094 23.5625 M 9.761719 16 C 9.757812 13.96875 10.75 12.0625 12.414062 10.894531 L 10.851562 8.28125 C 8.953125 9.546875 7.589844 11.464844 7.015625 13.675781 C 7.71875 14.242188 8.125 15.097656 8.121094 16 C 8.121094 16.902344 7.714844 17.753906 7.015625 18.324219 C 7.585938 20.535156 8.949219 22.457031 10.851562 23.722656 L 12.414062 21.105469 C 10.75 19.9375 9.761719 18.03125 9.761719 16 M 16 9.761719 C 19.230469 9.761719 21.929688 12.226562 22.214844 15.445312 L 25.257812 15.402344 C 25.113281 13.125 24.132812 10.980469 22.503906 9.382812 C 21.660156 9.703125 20.71875 9.628906 19.9375 9.179688 C 19.15625 8.726562 18.621094 7.949219 18.480469 7.058594 C 16.28125 6.445312 13.933594 6.667969 11.886719 7.679688 L 13.371094 10.339844 C 14.195312 9.960938 15.09375 9.761719 16 9.761719 M 16 22.238281 C 15.09375 22.238281 14.195312 22.042969 13.371094 21.660156 L 11.886719 24.320312 C 13.933594 25.332031 16.28125 25.554688 18.480469 24.941406 C 18.625 24.050781 19.160156 23.273438 19.941406 22.824219 C 20.71875 22.371094 21.660156 22.296875 22.5 22.617188 C 24.128906 21.019531 25.113281 18.875 25.257812 16.597656 L 22.210938 16.554688 C 21.925781 19.773438 19.230469 22.238281 16 22.238281 M 20.371094 8.425781 C 20.859375 8.714844 21.445312 8.792969 21.992188 8.644531 C 22.828125 8.421875 23.445312 7.714844 23.558594 6.859375 C 23.667969 6.003906 23.253906 5.164062 22.507812 4.730469 C 22.019531 4.441406 21.433594 4.363281 20.886719 4.511719 C 20.335938 4.65625 19.871094 5.019531 19.589844 5.511719 C 19.003906 6.535156 19.351562 7.839844 20.371094 8.429688 Z M 20.371094 8.425781 "/>
</svg>

<svg role="img" viewBox="0 0 32 32" xmlns="http://www.w3.org/2000/svg"><path d="M32 16c0 8.836-7.164 16-16 16S0 24.836 0 16 7.164 0 16 0s16 7.164 16 16m0 0" fill="rgb(86.666667%, 28.235295%, 7.843138%)"/><path d="M5.121 13.863a2.137 2.137 0 1 0 .001 4.275 2.137 2.137 0 0 0 0-4.275m15.25 9.7a2.15 2.15 0 0 0-.782 2.917 2.137 2.137 0 0 0 3.7-2.133 2.14 2.14 0 0 0-2.919-.785M9.761 16a6.23 6.23 0 0 1 2.653-5.105L10.852 8.28a9.28 9.28 0 0 0-3.836 5.395A2.97 2.97 0 0 1 8.12 16c0 .902-.406 1.754-1.105 2.324a9.27 9.27 0 0 0 3.836 5.399l1.562-2.618A6.23 6.23 0 0 1 9.762 16M16 9.762c3.23 0 5.93 2.465 6.215 5.683l3.043-.043a9.25 9.25 0 0 0-2.754-6.02 2.99 2.99 0 0 1-4.023-2.324 9.26 9.26 0 0 0-6.594.622l1.484 2.66A6.3 6.3 0 0 1 16 9.762m0 12.476a6.2 6.2 0 0 1-2.629-.578l-1.484 2.66a9.26 9.26 0 0 0 6.593.621c.145-.89.68-1.668 1.461-2.117a2.98 2.98 0 0 1 2.559-.207 9.26 9.26 0 0 0 2.758-6.02l-3.047-.042A6.233 6.233 0 0 1 16 22.238m4.371-13.812a2.1 2.1 0 0 0 1.621.219 2.14 2.14 0 0 0 1.567-1.786 2.15 2.15 0 0 0-1.051-2.129 2.125 2.125 0 0 0-2.918.781 2.14 2.14 0 0 0 .781 2.919Zm0 0" fill="rgb(100%, 100%, 100%)"/></svg>
